Newaita-dark/apps/scalable/wps-office-wpsmain.svg

<?xml version="1.0" encoding="UTF-8"?>
<svg xmlns="http://www.w3.org/2000/svg" xmlns:xlink="http://www.w3.org/1999/xlink" width="512pt" height="512pt" viewBox="0 0 512 512" version="1.1">
<defs>
<linearGradient id="linear0" gradientUnits="userSpaceOnUse" x1="254" y1="233.5" x2="254" y2="254.666672" gradientTransform="matrix(1.000095,0,0,1.000095,-0.000061041,215.020562)">
<stop offset="0" style="stop-color:rgb(0%,0%,0%);stop-opacity:0.27451;"/>
<stop offset="1" style="stop-color:rgb(0%,0%,0%);stop-opacity:0;"/>
</linearGradient>
<radialGradient id="radial0" gradientUnits="userSpaceOnUse" cx="450.908936" cy="189.579361" fx="450.908936" fy="189.579361" r="21.166656" gradientTransform="matrix(0.00000278673,-1.250119,-2.250215,-0.00000162462,781.168722,1017.525321)">
<stop offset="0" style="stop-color:rgb(0%,0%,0%);stop-opacity:0.313725;"/>
<stop offset="0.222222" style="stop-color:rgb(0%,0%,0%);stop-opacity:0.27451;"/>
<stop offset="1" style="stop-color:rgb(0%,0%,0%);stop-opacity:0;"/>
</radialGradient>
<radialGradient id="radial1" gradientUnits="userSpaceOnUse" cx="450.908936" cy="189.579361" fx="450.908936" fy="189.579361" r="21.166656" gradientTransform="matrix(-0.00000278673,1.250119,2.250215,0.00000162462,-283.704519,-120.439662)">
<stop offset="0" style="stop-color:rgb(0%,0%,0%);stop-opacity:0.313725;"/>
<stop offset="0.222222" style="stop-color:rgb(0%,0%,0%);stop-opacity:0.27451;"/>
<stop offset="1" style="stop-color:rgb(0%,0%,0%);stop-opacity:0;"/>
</radialGradient>
<radialGradient id="radial2" gradientUnits="userSpaceOnUse" cx="450.908936" cy="189.579361" fx="450.908936" fy="189.579361" r="21.166656" gradientTransform="matrix(-0.00000278673,-1.250119,2.250215,-0.00000162462,-283.704519,1017.525321)">
<stop offset="0" style="stop-color:rgb(0%,0%,0%);stop-opacity:0.313725;"/>
<stop offset="0.222222" style="stop-color:rgb(0%,0%,0%);stop-opacity:0.27451;"/>
<stop offset="1" style="stop-color:rgb(0%,0%,0%);stop-opacity:0;"/>
</radialGradient>
<radialGradient id="radial3" gradientUnits="userSpaceOnUse" cx="450.908936" cy="189.579361" fx="450.908936" fy="189.579361" r="21.166656" gradientTransform="matrix(0.00000278673,1.250119,-2.250215,0.00000162462,781.168692,-120.43967)">
<stop offset="0" style="stop-color:rgb(0%,0%,0%);stop-opacity:0.313725;"/>
<stop offset="0.222222" style="stop-color:rgb(0%,0%,0%);stop-opacity:0.27451;"/>
<stop offset="1" style="stop-color:rgb(0%,0%,0%);stop-opacity:0;"/>
</radialGradient>
<filter id="alpha" filterUnits="objectBoundingBox" x="0%" y="0%" width="100%" height="100%">
  <feColorMatrix type="matrix" in="SourceGraphic" values="0 0 0 0 1 0 0 0 0 1 0 0 0 0 1 0 0 0 1 0"/>
</filter>
<mask id="mask0">
  <g filter="url(#alpha)">
<rect x="0" y="0" width="512" height="512" style="fill:rgb(0%,0%,0%);fill-opacity:0.988235;stroke:none;"/>
  </g>
</mask>
<linearGradient id="linear1" gradientUnits="userSpaceOnUse" x1="940" y1="1695.118164" x2="940" y2="175.118118" gradientTransform="matrix(0.264609,0,0,0.264609,0,0)">
<stop offset="0" style="stop-color:rgb(93.333333%,93.333333%,93.333333%);stop-opacity:1;"/>
<stop offset="1" style="stop-color:rgb(96.078431%,96.078431%,96.078431%);stop-opacity:1;"/>
</linearGradient>
<clipPath id="clip1">
  <rect x="0" y="0" width="512" height="512"/>
</clipPath>
<g id="surface5" clip-path="url(#clip1)">
<path style=" stroke:none;fill-rule:nonzero;fill:url(#linear1);" d="M 116.429688 46.335938 C 104.699219 46.335938 95.257812 55.777344 95.257812 67.507812 L 95.257812 427.375 C 95.257812 439.101562 104.699219 448.542969 116.429688 448.542969 L 381.035156 448.542969 C 392.765625 448.542969 402.203125 439.101562 402.203125 427.375 L 402.203125 141.597656 L 306.945312 46.335938 Z M 328.113281 46.335938 L 402.203125 120.429688 L 402.203125 67.507812 C 402.203125 55.777344 392.765625 46.335938 381.035156 46.335938 Z M 328.113281 46.335938 "/>
</g>
<mask id="mask1">
  <g filter="url(#alpha)">
<rect x="0" y="0" width="512" height="512" style="fill:rgb(0%,0%,0%);fill-opacity:0.988235;stroke:none;"/>
  </g>
</mask>
<linearGradient id="linear2" gradientUnits="userSpaceOnUse" x1="940" y1="1695.118164" x2="940" y2="175.118118" gradientTransform="matrix(0.264609,0,0,0.264609,0,0)">
<stop offset="0" style="stop-color:rgb(25.882353%,64.705882%,96.078431%);stop-opacity:1;"/>
<stop offset="1" style="stop-color:rgb(39.215686%,70.980392%,96.470588%);stop-opacity:1;"/>
</linearGradient>
<clipPath id="clip2">
  <rect x="0" y="0" width="512" height="512"/>
</clipPath>
<g id="surface8" clip-path="url(#clip2)">
<path style=" stroke:none;fill-rule:nonzero;fill:url(#linear2);" d="M 328.113281 46.335938 L 402.203125 120.429688 L 402.203125 67.507812 C 402.203125 55.777344 392.765625 46.335938 381.035156 46.335938 Z M 328.113281 46.335938 "/>
</g>
<mask id="mask2">
  <g filter="url(#alpha)">
<rect x="0" y="0" width="512" height="512" style="fill:rgb(0%,0%,0%);fill-opacity:0.988235;stroke:none;"/>
  </g>
</mask>
<clipPath id="clip3">
  <rect x="0" y="0" width="512" height="512"/>
</clipPath>
<g id="surface11" clip-path="url(#clip3)">
<path style=" stroke:none;fill-rule:nonzero;fill:rgb(100%,100%,100%);fill-opacity:0.392157;" d="M 116.429688 46.335938 C 104.699219 46.335938 95.257812 55.777344 95.257812 67.507812 L 95.257812 72.796875 C 95.257812 61.070312 104.699219 51.628906 116.429688 51.628906 L 306.945312 51.628906 L 402.203125 146.890625 L 402.203125 141.597656 L 306.945312 46.335938 Z M 328.113281 46.335938 L 333.40625 51.628906 L 381.035156 51.628906 C 392.765625 51.628906 402.203125 61.070312 402.203125 72.796875 L 402.203125 67.507812 C 402.203125 55.777344 392.765625 46.335938 381.035156 46.335938 Z M 328.113281 46.335938 "/>
</g>
<mask id="mask3">
  <g filter="url(#alpha)">
<rect x="0" y="0" width="512" height="512" style="fill:rgb(0%,0%,0%);fill-opacity:0.988235;stroke:none;"/>
  </g>
</mask>
<clipPath id="clip4">
  <rect x="0" y="0" width="512" height="512"/>
</clipPath>
<g id="surface14" clip-path="url(#clip4)">
<path style=" stroke:none;fill-rule:nonzero;fill:rgb(0%,0%,0%);fill-opacity:0.235294;" d="M 328.113281 46.335938 L 402.203125 120.429688 L 402.203125 112.574219 L 335.96875 46.335938 Z M 95.257812 419.519531 L 95.257812 427.375 C 95.257812 439.101562 104.699219 448.542969 116.429688 448.542969 L 381.035156 448.542969 C 392.765625 448.542969 402.203125 439.101562 402.203125 427.375 L 402.203125 419.519531 C 402.203125 431.246094 392.765625 440.691406 381.035156 440.691406 L 116.429688 440.691406 C 104.699219 440.691406 95.257812 431.246094 95.257812 419.519531 Z M 95.257812 419.519531 "/>
</g>
<mask id="mask4">
  <g filter="url(#alpha)">
<rect x="0" y="0" width="512" height="512" style="fill:rgb(0%,0%,0%);fill-opacity:0.988235;stroke:none;"/>
  </g>
</mask>
<clipPath id="clip5">
  <rect x="0" y="0" width="512" height="512"/>
</clipPath>
<g id="surface17" clip-path="url(#clip5)">
<path style=" stroke:none;fill-rule:nonzero;fill:rgb(12.941177%,12.941177%,12.941177%);fill-opacity:1;" d="M 116.429688 44.835938 C 103.894531 44.835938 93.757812 54.972656 93.757812 67.507812 L 93.757812 427.375 C 93.757812 439.90625 103.894531 450.042969 116.429688 450.042969 L 381.035156 450.042969 C 393.570312 450.042969 403.707031 439.90625 403.707031 427.375 L 403.707031 141.597656 C 403.707031 141.199219 403.546875 140.816406 403.265625 140.535156 L 308.007812 45.277344 C 307.726562 44.996094 307.34375 44.835938 306.945312 44.835938 Z M 328.113281 44.835938 C 327.507812 44.835938 326.960938 45.203125 326.726562 45.761719 C 326.496094 46.324219 326.625 46.96875 327.054688 47.398438 L 401.144531 121.488281 C 401.574219 121.917969 402.21875 122.046875 402.777344 121.8125 C 403.339844 121.582031 403.707031 121.035156 403.707031 120.429688 L 403.707031 67.507812 C 403.707031 54.972656 393.570312 44.835938 381.035156 44.835938 Z M 116.429688 47.835938 L 306.324219 47.835938 L 400.703125 142.21875 L 400.703125 427.375 C 400.703125 438.296875 391.957031 447.042969 381.035156 447.042969 L 116.429688 447.042969 C 105.503906 447.042969 96.757812 438.296875 96.757812 427.375 L 96.757812 67.507812 C 96.757812 56.582031 105.503906 47.835938 116.429688 47.835938 Z M 331.738281 47.835938 L 381.035156 47.835938 C 391.957031 47.835938 400.703125 56.582031 400.703125 67.507812 L 400.703125 116.804688 Z M 331.738281 47.835938 "/>
</g>
<linearGradient id="linear3" gradientUnits="userSpaceOnUse" x1="200.174942" y1="142.538422" x2="308.654114" y2="-45.353008" gradientTransform="matrix(1,0,0,1,0.000000000000028422,0)">
<stop offset="0" style="stop-color:rgb(61.960784%,61.960784%,61.960784%);stop-opacity:1;"/>
<stop offset="1" style="stop-color:rgb(74.117647%,74.117647%,74.117647%);stop-opacity:1;"/>
</linearGradient>
<linearGradient id="linear4" gradientUnits="userSpaceOnUse" x1="200.174942" y1="142.538422" x2="308.654114" y2="-45.353008" gradientTransform="matrix(1,0,0,1,0.000000000000028422,0)">
<stop offset="0" style="stop-color:rgb(61.960784%,61.960784%,61.960784%);stop-opacity:1;"/>
<stop offset="1" style="stop-color:rgb(74.117647%,74.117647%,74.117647%);stop-opacity:1;"/>
</linearGradient>
<linearGradient id="linear5" gradientUnits="userSpaceOnUse" x1="200.174942" y1="142.538422" x2="308.654114" y2="-45.353008" gradientTransform="matrix(1,0,0,1,0.000000000000028422,0)">
<stop offset="0" style="stop-color:rgb(61.960784%,61.960784%,61.960784%);stop-opacity:1;"/>
<stop offset="1" style="stop-color:rgb(74.117647%,74.117647%,74.117647%);stop-opacity:1;"/>
</linearGradient>
<linearGradient id="linear6" gradientUnits="userSpaceOnUse" x1="200.174942" y1="142.538422" x2="308.654114" y2="-45.353008" gradientTransform="matrix(1,0,0,1,0.000000000000028422,0)">
<stop offset="0" style="stop-color:rgb(61.960784%,61.960784%,61.960784%);stop-opacity:1;"/>
<stop offset="1" style="stop-color:rgb(74.117647%,74.117647%,74.117647%);stop-opacity:1;"/>
</linearGradient>
<linearGradient id="linear7" gradientUnits="userSpaceOnUse" x1="243.416656" y1="259.296906" x2="243.416656" y2="-59.085064" gradientTransform="matrix(1,0,0,1.263158,0.0000101725,-94.032906)">
<stop offset="0" style="stop-color:rgb(25.882353%,64.705882%,96.078431%);stop-opacity:1;"/>
<stop offset="1" style="stop-color:rgb(39.215686%,70.980392%,96.470588%);stop-opacity:1;"/>
</linearGradient>
</defs>
<g id="surface1">
<path style=" stroke:none;fill-rule:nonzero;fill:url(#linear0);" d="M 137.597656 448.542969 L 359.867188 448.542969 L 359.867188 469.710938 L 137.597656 469.710938 Z M 137.597656 448.542969 "/>
<path style=" stroke:none;fill-rule:nonzero;fill:url(#radial0);" d="M 359.867188 448.542969 L 402.207031 448.542969 L 402.207031 427.375 L 359.867188 427.375 Z M 359.867188 448.542969 "/>
<path style=" stroke:none;fill-rule:nonzero;fill:url(#radial1);" d="M 137.597656 448.542969 L 95.257812 448.542969 L 95.257812 469.710938 L 137.597656 469.710938 Z M 137.597656 448.542969 "/>
<path style=" stroke:none;fill-rule:nonzero;fill:url(#radial2);" d="M 137.597656 448.542969 L 95.257812 448.542969 L 95.257812 427.375 L 137.597656 427.375 Z M 137.597656 448.542969 "/>
<path style=" stroke:none;fill-rule:nonzero;fill:url(#radial3);" d="M 359.867188 448.542969 L 402.207031 448.542969 L 402.207031 469.710938 L 359.867188 469.710938 Z M 359.867188 448.542969 "/>
<use xlink:href="#surface5" mask="url(#mask0)"/>
<use xlink:href="#surface8" mask="url(#mask1)"/>
<use xlink:href="#surface11" mask="url(#mask2)"/>
<use xlink:href="#surface14" mask="url(#mask3)"/>
<use xlink:href="#surface17" mask="url(#mask4)"/>
<path style="fill-rule:nonzero;fill:url(#linear3);stroke-width:3;stroke-linecap:round;stroke-linejoin:round;stroke:rgb(12.941177%,12.941177%,12.941177%);stroke-opacity:1;stroke-miterlimit:4;" d="M 179.915916 -26.588433 L 317.502273 -26.589626 C 323.343523 -26.590747 328.084751 -21.850905 328.083919 -16.006272 C 328.083087 -10.161639 323.345198 -5.423795 317.500566 -5.424627 L 179.917591 -5.421481 C 174.072958 -5.422313 169.331731 -10.162154 169.332563 -16.006787 C 169.333395 -21.85142 174.071283 -26.589265 179.915916 -26.588433 Z M 179.915916 -26.588433 " transform="matrix(0.866108,-0.500048,0.500048,0.866108,9.375103,345.803599)"/>
<path style="fill-rule:nonzero;fill:url(#linear4);stroke-width:3;stroke-linecap:round;stroke-linejoin:round;stroke:rgb(12.941177%,12.941177%,12.941177%);stroke-opacity:1;stroke-miterlimit:4;" d="M 179.915883 15.743519 L 317.500288 15.745708 C 323.346874 15.743158 328.084718 20.481046 328.083886 26.325679 C 328.083054 32.170312 323.343213 36.911539 317.49858 36.910707 L 179.917558 36.910471 C 174.072925 36.909639 169.335081 32.17175 169.33253 26.325164 C 169.333362 20.480531 174.07125 15.742687 179.915883 15.743519 Z M 179.915883 15.743519 " transform="matrix(0.866108,-0.500048,0.500048,0.866108,9.375103,345.803599)"/>
<path style="fill-rule:nonzero;fill:url(#linear5);stroke-width:3;stroke-linecap:round;stroke-linejoin:round;stroke:rgb(12.941177%,12.941177%,12.941177%);stroke-opacity:1;stroke-miterlimit:4;" d="M 179.915851 58.07547 L 317.500255 58.07766 C 323.344888 58.078492 328.082733 62.81638 328.081901 68.661013 C 328.081069 74.505646 323.34318 79.243491 317.498547 79.242659 L 179.917526 79.242422 C 174.07094 79.244973 169.333095 74.507084 169.333927 68.662451 C 169.331376 62.815865 174.069265 58.078021 179.915851 58.07547 Z M 179.915851 58.07547 " transform="matrix(0.866108,-0.500048,0.500048,0.866108,9.375103,345.803599)"/>
<path style="fill-rule:nonzero;fill:url(#linear6);stroke-width:3;stroke-linecap:round;stroke-linejoin:round;stroke:rgb(12.941177%,12.941177%,12.941177%);stroke-opacity:1;stroke-miterlimit:4;" d="M 179.918555 101.207292 L 317.499576 101.207529 C 323.344209 101.208361 328.082054 105.946249 328.084605 111.792835 C 328.083773 117.637468 323.345884 122.375313 317.501251 122.374481 L 179.914894 122.375674 C 174.070261 122.374842 169.332417 117.636954 169.333248 111.792321 C 169.33408 105.947688 174.071969 101.209843 179.918555 101.207292 Z M 179.918555 101.207292 " transform="matrix(0.866108,-0.500048,0.500048,0.866108,9.375103,345.803599)"/>
<path style="fill-rule:nonzero;fill:url(#linear7);stroke-width:3;stroke-linecap:round;stroke-linejoin:round;stroke:rgb(0%,0%,0%);stroke-opacity:1;stroke-miterlimit:4;" d="M 95.248717 53.583727 L 402.168626 53.583727 L 402.168626 154.124907 L 95.248717 154.124907 Z M 95.248717 53.583727 " transform="matrix(1.000095,0,0,1.000095,0,215.020531)"/>
</g>
</svg>

<svg xmlns="http://www.w3.org/2000/svg" xmlns:xlink="http://www.w3.org/1999/xlink" width="512pt" height="512pt" viewBox="0 0 512 512"><defs><linearGradient id="i" gradientUnits="userSpaceOnUse" x1="254" y1="233.5" x2="254" y2="254.667" gradientTransform="matrix(1.0001 0 0 1.0001 0 215.02)"><stop offset="0" stop-opacity=".275"/><stop offset="1" stop-opacity="0"/></linearGradient><radialGradient id="j" gradientUnits="userSpaceOnUse" cx="450.909" cy="189.579" fx="450.909" fy="189.579" r="21.167" gradientTransform="matrix(0 -1.25012 -2.25021 0 781.169 1017.525)"><stop offset="0" stop-opacity=".314"/><stop offset=".222" stop-opacity=".275"/><stop offset="1" stop-opacity="0"/></radialGradient><radialGradient id="k" gradientUnits="userSpaceOnUse" cx="450.909" cy="189.579" fx="450.909" fy="189.579" r="21.167" gradientTransform="matrix(0 1.25012 2.25021 0 -283.705 -120.44)"><stop offset="0" stop-opacity=".314"/><stop offset=".222" stop-opacity=".275"/><stop offset="1" stop-opacity="0"/></radialGradient><radialGradient id="l" gradientUnits="userSpaceOnUse" cx="450.909" cy="189.579" fx="450.909" fy="189.579" r="21.167" gradientTransform="matrix(0 -1.25012 2.25021 0 -283.705 1017.525)"><stop offset="0" stop-opacity=".314"/><stop offset=".222" stop-opacity=".275"/><stop offset="1" stop-opacity="0"/></radialGradient><radialGradient id="m" gradientUnits="userSpaceOnUse" cx="450.909" cy="189.579" fx="450.909" fy="189.579" r="21.167" gradientTransform="matrix(0 1.25012 -2.25021 0 781.169 -120.44)"><stop offset="0" stop-opacity=".314"/><stop offset=".222" stop-opacity=".275"/><stop offset="1" stop-opacity="0"/></radialGradient><filter id="a" filterUnits="objectBoundingBox" x="0%" y="0%" width="100%" height="100%"><feColorMatrix in="SourceGraphic" values="0 0 0 0 1 0 0 0 0 1 0 0 0 0 1 0 0 0 1 0"/></filter><mask id="o"><path fill-opacity=".988" d="M0 0h512v512H0z" filter="url(#a)"/></mask><linearGradient id="c" gradientUnits="userSpaceOnUse" x1="940" y1="1695.118" x2="940" y2="175.118" gradientTransform="rotate(.158) scale(.26461)"><stop offset="0" stop-color="#eee"/><stop offset="1" stop-color="#f5f5f5"/></linearGradient><clipPath id="b"><path d="M0 0h512v512H0z"/></clipPath><g id="n" clip-path="url(#b)"><path d="M116.43 46.336a21.124 21.124 0 0 0-21.172 21.172v359.867a21.123 21.123 0 0 0 21.172 21.168h264.605a21.12 21.12 0 0 0 21.168-21.168V141.598l-95.258-95.262zm211.683 0l74.09 74.094V67.508a21.12 21.12 0 0 0-21.168-21.172zm0 0" fill="url(#c)"/></g><mask id="q"><path fill-opacity=".988" d="M0 0h512v512H0z" filter="url(#a)"/></mask><linearGradient id="e" gradientUnits="userSpaceOnUse" x1="940" y1="1695.118" x2="940" y2="175.118" gradientTransform="rotate(.158) scale(.26461)"><stop offset="0" stop-color="#42a5f5"/><stop offset="1" stop-color="#64b5f6"/></linearGradient><clipPath id="d"><path d="M0 0h512v512H0z"/></clipPath><g id="p" clip-path="url(#d)"><path d="M328.113 46.336l74.09 74.094V67.508a21.12 21.12 0 0 0-21.168-21.172zm0 0" fill="url(#e)"/></g><mask id="s"><path fill-opacity=".988" d="M0 0h512v512H0z" filter="url(#a)"/></mask><clipPath id="f"><path d="M0 0h512v512H0z"/></clipPath><g id="r" clip-path="url(#f)"><path d="M116.43 46.336a21.124 21.124 0 0 0-21.172 21.172v5.289a21.123 21.123 0 0 1 21.172-21.168h190.515l95.258 95.262v-5.293l-95.258-95.262zm211.683 0l5.293 5.293h47.63a21.12 21.12 0 0 1 21.167 21.168v-5.29a21.12 21.12 0 0 0-21.168-21.171zm0 0" fill="#fff" fill-opacity=".392"/></g><mask id="u"><path fill-opacity=".988" d="M0 0h512v512H0z" filter="url(#a)"/></mask><clipPath id="g"><path d="M0 0h512v512H0z"/></clipPath><g id="t" clip-path="url(#g)"><path d="M328.113 46.336l74.09 74.094v-7.856L335.97 46.336zM95.258 419.52v7.855a21.123 21.123 0 0 0 21.172 21.168h264.605a21.12 21.12 0 0 0 21.168-21.168v-7.855a21.123 21.123 0 0 1-21.168 21.171H116.43a21.126 21.126 0 0 1-21.172-21.171zm0 0" fill-opacity=".235"/></g><mask id="w"><path fill-opacity=".988" d="M0 0h512v512H0z" filter="url(#a)"/></mask><clipPath id="h"><path d="M0 0h512v512H0z"/></clipPath><g id="v" clip-path="url(#h)"><path d="M116.43 44.836c-12.535 0-22.672 10.137-22.672 22.672v359.867c0 12.531 10.137 22.668 22.672 22.668h264.605c12.535 0 22.672-10.137 22.672-22.668V141.598c0-.399-.16-.782-.441-1.063l-95.258-95.258a1.505 1.505 0 0 0-1.063-.441zm211.683 0c-.605 0-1.152.367-1.386.926a1.506 1.506 0 0 0 .328 1.636l74.09 74.09c.43.43 1.074.559 1.632.325.563-.231.93-.778.93-1.383V67.508c0-12.535-10.137-22.672-22.672-22.672zm-211.683 3h189.894l94.38 94.383v285.156a19.592 19.592 0 0 1-19.669 19.668H116.43a19.593 19.593 0 0 1-19.672-19.668V67.508a19.594 19.594 0 0 1 19.672-19.672zm215.308 0h49.297a19.593 19.593 0 0 1 19.668 19.672v49.297zm0 0" fill="#212121"/></g><linearGradient id="x" gradientUnits="userSpaceOnUse" x1="200.175" y1="142.538" x2="308.654" y2="-45.353"><stop offset="0" stop-color="#9e9e9e"/><stop offset="1" stop-color="#bdbdbd"/></linearGradient><linearGradient id="y" gradientUnits="userSpaceOnUse" x1="200.175" y1="142.538" x2="308.654" y2="-45.353"><stop offset="0" stop-color="#9e9e9e"/><stop offset="1" stop-color="#bdbdbd"/></linearGradient><linearGradient id="z" gradientUnits="userSpaceOnUse" x1="200.175" y1="142.538" x2="308.654" y2="-45.353"><stop offset="0" stop-color="#9e9e9e"/><stop offset="1" stop-color="#bdbdbd"/></linearGradient><linearGradient id="A" gradientUnits="userSpaceOnUse" x1="200.175" y1="142.538" x2="308.654" y2="-45.353"><stop offset="0" stop-color="#9e9e9e"/><stop offset="1" stop-color="#bdbdbd"/></linearGradient><linearGradient id="B" gradientUnits="userSpaceOnUse" x1="243.417" y1="259.297" x2="243.417" y2="-59.085" gradientTransform="matrix(1 0 0 1.26316 0 -94.033)"><stop offset="0" stop-color="#42a5f5"/><stop offset="1" stop-color="#64b5f6"/></linearGradient></defs><path d="M137.598 448.543h222.27v21.168h-222.27zm0 0" fill="url(#i)"/><path d="M359.867 448.543h42.34v-21.168h-42.34zm0 0" fill="url(#j)"/><path d="M137.598 448.543h-42.34v21.168h42.34zm0 0" fill="url(#k)"/><path d="M137.598 448.543h-42.34v-21.168h42.34zm0 0" fill="url(#l)"/><path d="M359.867 448.543h42.34v21.168h-42.34zm0 0" fill="url(#m)"/><use xlink:href="#n" mask="url(#o)"/><use xlink:href="#p" mask="url(#q)"/><use xlink:href="#r" mask="url(#s)"/><use xlink:href="#t" mask="url(#u)"/><use xlink:href="#v" mask="url(#w)"/><path d="M179.916-26.588l137.586-.002c5.842 0 10.583 4.74 10.582 10.584 0 5.844-4.739 10.582-10.583 10.581l-137.583.004c-5.845-.001-10.586-4.741-10.585-10.586 0-5.844 4.738-10.582 10.583-10.581zm0 0" transform="scale(1.0001) rotate(-30 649.903 155.393)" fill="url(#x)" stroke-width="3" stroke-linecap="round" stroke-linejoin="round" stroke="#212121"/><path d="M179.916 15.744l137.584.002c5.847-.003 10.585 4.735 10.584 10.58 0 5.844-4.74 10.586-10.585 10.585H179.918c-5.845-.001-10.583-4.74-10.585-10.586 0-5.844 4.738-10.582 10.583-10.581zm0 0" transform="scale(1.0001) rotate(-30 649.903 155.393)" fill="url(#y)" stroke-width="3" stroke-linecap="round" stroke-linejoin="round" stroke="#212121"/><path d="M179.916 58.075l137.584.003c5.845 0 10.583 4.738 10.582 10.583 0 5.845-4.739 10.582-10.583 10.582H179.918c-5.847.002-10.585-4.736-10.584-10.58-.003-5.847 4.735-10.585 10.582-10.588zm0 0" transform="scale(1.0001) rotate(-30 649.903 155.393)" fill="url(#z)" stroke-width="3" stroke-linecap="round" stroke-linejoin="round" stroke="#212121"/><path d="M179.919 101.207h137.58c5.845.001 10.583 4.74 10.586 10.586-.001 5.844-4.74 10.582-10.584 10.581l-137.586.002c-5.845-.001-10.583-4.739-10.582-10.584.001-5.844 4.739-10.582 10.586-10.585zm0 0" transform="scale(1.0001) rotate(-30 649.903 155.393)" fill="url(#A)" stroke-width="3" stroke-linecap="round" stroke-linejoin="round" stroke="#212121"/><path d="M95.249 53.584h306.92v100.54H95.249zm0 0" transform="matrix(1.0001 0 0 1.0001 0 215.02)" fill="url(#B)" stroke-width="3" stroke-linecap="round" stroke-linejoin="round" stroke="#000"/></svg>
